X:143
T:Polska från Brotorp
R:Slängpolska
Z:Transkription till abc av Jon Magnusson
B:Jämför [[http://www.smus.se/earkiv/fmk/browselarge.php?lang=sw&katalogid=MMD+63&bildnr=00004|SMUS - katalog MMD63 bild 4]] nr 31 ur [[Notböcker/Anders Perssons notbok]]
O:Brotorp
S:efter Anders Persson
D:Pelle Björnlert, Fors
M:3/4
L:1/16
K:Dm
|:A2d2 fe^ce e2d2|AGAB cBAG B2A2|F2AF E2FE D^CDE|FED^C DEFG A4|
A2d2 fe^ce e2d2|AGAB cBAG B2A2|F2AF E2FE D^CDE|FED^C C8|D8z4:|:
f2fa fcfa a2gf|egeg eceg g2fe|f2fa fcfa a2gf|egeg eceg g2fe|
d^cde fefg a2d2|fed^c c2d2 d4:|
(:musicend:)

(:music:)
